assets/masks/Asset 5.svg

<?xml version="1.0" encoding="UTF-8"?>
<svg id="Layer_2" data-name="Layer 2" xmlns="http://www.w3.org/2000/svg" viewBox="0 0 1003.02 1003.01" preserveAspectRatio="none">
  <defs>
    <style>
      .cls-1 {
        fill: #000;
      }
    </style>
  </defs>
  <g id="Graphic">
    <path class="cls-1" d="M1003.02,449.86h0l-.03-28.97v-29.21h-.14c-35.41,0-71.06,3.14-105.95,9.34l-5.01-28.39c36.48-6.49,73.75-9.78,110.77-9.78h.37v-29.34h0l-.03-28.93.02-28.96h0v-29.12h.01v-.25h0v-29.08h-.47c-45.26,0-91.01,4.03-135.98,11.98l-5.01-28.39c46.5-8.25,93.87-12.43,140.8-12.43h.66v-29.34h0v-29.08h0l-.02-29.01v-.12h0v-29.09s0-28.84,0-28.84V13.5s-.11,0-.11,0c-57.33,0-115.09,5.1-171.67,15.13L826.21.12l-.02-.12-.12.02c-58.1,10.27-115.75,25.75-171.35,46.03h0s-.12.04-.12.04l-.12.04h0c-55.45,20.19-109.47,45.39-160.59,74.88h0s-.11.06-.11.06l-.11.06h0c-51.3,29.57-100.18,63.74-145.29,101.56h0s-.1.08-.1.08l-.1.08h0c-45.19,37.82-87.39,79.95-125.44,125.24h0s-.08.1-.08.1l-.08.1h0c-37.99,45.31-72.16,94.2-101.55,145.3h0s-.06.11-.06.11l-.06.11h0c-29.32,50.87-54.48,104.94-74.79,160.7h0s-.04.12-.04.12l-.04.12h0C25.74,710.55,10.26,768.18.02,826.04l-.02.12,28.65,5.08h0s0,0,0,0c-10.04,56.44-15.11,114.19-15.09,171.62v.12h29.1s29.03.02,29.03.02h.25s28.95-.02,28.95-.02l28.97.02h.25s29.01-.02,29.01-.02h29.21s29.08,0,29.08,0v-.12c-.01-45.45,4.03-91.28,12.01-136.24l28.42,5h0c-7.71,43.25-11.6,87.4-11.59,131.24v.12h29.34s28.83,0,28.83,0h29.11s29.1.01,29.1.01h29.34s29.08,0,29.08,0v-.12c0-33.79,2.98-67.73,8.88-100.88l28.38,4.99h0c-5.64,31.71-8.47,63.97-8.43,95.89v.12h29.3s29.09-.01,29.09-.01h28.85s29.03.02,29.03.02h29.37s0-.11,0-.11c-.02-23.61,2.07-47.37,6.21-70.63l28.42,5h0s0,0,0,0c-3.88,21.66-5.84,43.74-5.82,65.61v.12h29.15s28.95,0,28.95,0h.25s28.84-.03,28.84-.03l29.09.02h.12v-.12c-.02-14.98,1.32-30.26,3.98-45.41l28.34,5.01h0s0,0,0,0c-2.37,13.37-3.57,26.96-3.57,40.41v.12h29.22s28.81-.02,28.81-.02h28.98v-.13c0-8.49.76-16.99,2.24-25.29l28.09,4.96c-1.21,6.79-1.82,13.63-1.8,20.33v.12l28.51.02h.25s27.86-.02,27.86-.02h.13v-.13c0-.6-.01-1.22.02-1.82.09-2.91.39-5.82.89-8.66l25.55,4.51.12.02.02-.12c.36-2.03.89-4.01,1.58-5.9l.04-.12-24.53-8.93c1.21-3.32,2.72-6.52,4.49-9.52l.06-.11-24.23-13.98c2.53-4.4,5.51-8.65,8.85-12.64l.08-.1-21.85-18.31c4.3-5.14,9.15-9.99,14.4-14.41l.1-.08-18.47-22.01c6.51-5.45,13.52-10.33,20.84-14.53l.11-.06-14.44-25.01c8.88-5.12,18.14-9.44,27.54-12.83l.12-.04-9.9-27.19c11.07-4.06,22.59-7.17,34.27-9.22l.12-.02-5.01-28.54c13.07-2.33,26.52-3.51,39.98-3.51h.5v-29.26s-.12,0-.12,0h-.37c-15.01,0-30.17,1.35-45.07,4.01l-5.01-28.39c16.42-2.91,33.02-4.38,49.35-4.38.37,0,.73,0,1.1,0h.13s-.01-29.3-.01-29.3v-29.08h-.38c-20.02,0-40.31,1.78-60.32,5.3l-4.99-28.34c21.59-3.82,43.55-5.76,65.28-5.76h.4l.02-29.04h0v-.12h0v-.13h0v-29.09h0v-29.05h-.14c-27.17,0-54.33,2.4-80.73,7.1l-5.01-28.39c28.07-4.98,56.67-7.5,85.05-7.5.24,0,.47,0,.71,0h.12l-.02-29.18.03-29.02h0v-.25ZM962.22,773.04c-13.27,2.35-26.41,5.89-39.06,10.52l-9.84-27c14.23-5.2,29.01-9.17,43.92-11.79l4.98,28.26ZM716.15,952.17c2.11-11.81,4.97-23.62,8.51-35.09,1.36-4.43,2.86-8.9,4.59-13.67l27.03,9.84h0s0,0,0,0c-1.69,4.66-3.28,9.45-4.73,14.24-2.91,9.75-5.29,19.73-7.08,29.68l-28.34-5.01ZM200.8,861.33c7.96-44.86,19.89-89.65,35.45-133.14l1.36-3.73,27.1,9.86h0s-1.55,4.27-1.55,4.27h0c-14.84,41.5-26.26,84.47-33.94,127.73l-28.42-5ZM836.02,57.3c-54.65,9.67-108.95,24.27-161.4,43.39l-9.85-27.08c54.05-19.69,109.98-34.73,166.24-44.7l5.01,28.39ZM871.39,257.83c-43,7.62-85.77,19.13-127.14,34.19l-9.85-27.08c42.71-15.58,87.11-27.52,131.97-35.5l5.01,28.39ZM901.68,429.68c-33.26,5.91-66.16,14.75-97.77,26.27l-9.85-27.08c33.41-12.17,67.93-21.44,102.63-27.57l4.98,28.37ZM852.76,824.18c-10.31,8.65-19.94,18.26-28.61,28.58l-21.99-18.5c9.6-11.48,20.4-22.27,32.12-32.08l18.48,22ZM778.15,735.26c-15.5,12.98-29.95,27.4-42.94,42.86l-22.06-18.52c14.21-16.91,29.85-32.52,46.49-46.38l18.5,22.04ZM312.13,423.11c33.6-40.05,70.96-77.36,111.03-110.91l18.52,22.09c-38.73,32.43-74.89,68.53-107.48,107.31l-22.07-18.49ZM468.09,553.98c26.07-31.03,54.99-59.89,85.95-85.79l18.52,22.09c-29.7,24.87-57.41,52.54-82.38,82.24l-22.09-18.54ZM601.77,666.16c19.47-23.2,41.14-44.84,64.41-64.32l18.56,22.1c-21.99,18.4-42.48,38.84-60.88,60.75l-22.09-18.54ZM740.87,549.32c-26.47,15.25-51.58,32.8-74.65,52.17l-18.52-22.09c24.57-20.55,51.07-39.07,78.76-55.03l14.41,24.95ZM653.61,398.2c-35.09,20.24-68.58,43.66-99.54,69.63l-18.56-22.1c32.34-27.07,67.23-51.45,103.72-72.47l14.38,24.94ZM551.84,221.89c-45.34,26.17-88.62,56.43-128.65,89.96l-18.52-22.09c41.26-34.59,85.93-65.81,132.76-92.82l14.41,24.95ZM247.22,566.43c25.15-43.72,54.42-85.6,87.01-124.49l22.11,18.58h0s0,0,0,0c-31.44,37.46-59.74,77.94-84.14,120.34l-24.98-14.44ZM423.55,668.22c19.35-33.61,41.78-65.7,66.66-95.36l22.12,18.55h0s0,0,0,0c-23.95,28.56-45.41,59.26-63.8,91.24l-24.98-14.44ZM574.64,755.47c14.27-24.74,30.84-48.44,49.25-70.43l22.1,18.5h0c-17.36,20.68-32.97,43-46.41,66.35l-24.95-14.42ZM700.49,828.15c10.12-17.55,21.81-34.26,34.75-49.68l22.05,18.52h0s0,0,0,0c-11.98,14.28-22.71,29.6-31.88,45.53l-24.93-14.38ZM801.03,886.18c6.77-11.73,14.56-22.85,23.16-33.07l22.01,18.43h0c-7.68,9.2-14.51,18.95-20.28,29l-24.89-14.36ZM871.61,775.74c-13.16,7.6-25.71,16.37-37.3,26.09l-18.49-22.08c12.99-10.86,26.92-20.59,41.39-28.92l14.39,24.9ZM813.52,675.14c-19.21,11.12-37.32,23.81-53.84,37.73l-18.52-22.09c17.94-15.08,37.45-28.72,57.97-40.54l14.39,24.9ZM813.63,483.4h0c-30.12,10.98-59.42,24.65-87.08,40.64l-14.4-24.98c29.08-16.78,59.9-31.17,91.61-42.78l9.87,27.12ZM753.98,319.43h0c-39.65,14.45-78.22,32.44-114.66,53.49l-14.43-24.99c37.82-21.83,77.93-40.53,119.21-55.59l9.88,27.09ZM684.34,128.13h0c-50.72,18.47-100.11,41.5-146.82,68.46l-14.4-24.98c48.26-27.84,99.18-51.59,151.35-70.61l9.87,27.12ZM210.35,714.28c16.81-46.18,37.65-90.95,61.94-133.07l24.96,14.39c-23.4,40.6-43.52,83.85-59.8,128.54l-27.1-9.86ZM401.68,783.92c12.69-34.93,28.48-68.88,46.95-100.92l24.95,14.42h0s0,0,0,0c-17.61,30.61-32.69,63.02-44.83,96.34l-27.07-9.85ZM565.56,843.57c9.23-25.35,20.71-50.02,34.12-73.33l24.99,14.4c-12.61,21.86-23.38,45-32.01,68.79l-27.1-9.87ZM702.08,893.25c6.35-17.41,14.23-34.36,23.44-50.39l24.92,14.41h0c-8.42,14.6-15.59,30.01-21.32,45.81l-27.04-9.84ZM811.09,932.93c3.97-10.98,8.99-21.76,14.93-32.04l24.83,14.34c-5.01,8.67-9.32,17.92-12.82,27.5l-26.93-9.8ZM903.07,729.1h0c-15.79,5.76-31.19,12.96-45.76,21.39l-14.38-24.94c16.07-9.28,33-17.18,50.31-23.49l9.83,27.03ZM863.37,619.98h0c-22.15,8.05-43.74,18.12-64.15,29.91l-14.41-24.95c22.05-12.72,45.16-23.48,68.7-32.01l9.86,27.04ZM892.39,962.52c2.29-6.36,5.17-12.53,8.56-18.34l24.48,14.14c-2.57,4.38-4.75,9.04-6.48,13.87l-26.56-9.67ZM876.16,929.58c4.26-7.34,9.15-14.3,14.53-20.69l21.82,18.32c-4.4,5.19-8.31,10.78-11.64,16.63l-24.7-14.26ZM890.65,908.53l-21.95-18.41c6.42-7.63,13.63-14.83,21.43-21.41l18.39,21.92c-6.54,5.51-12.55,11.52-17.87,17.89ZM871.74,846.43c8.87-7.44,18.61-14.27,28.97-20.29l14.33,24.84c-8.58,4.94-16.95,10.78-24.88,17.39l-18.42-21.94ZM886.43,800.94c11.76-6.77,24.07-12.51,36.58-17.06l9.81,26.99c-11.19,4.1-21.96,9.12-32.02,14.93l-14.37-24.86ZM401.35,896.68c5.68-32.08,14.04-64.05,24.86-95.02l.07-.21c.88-2.52,1.71-4.9,2.6-7.35l27.07,9.85h0s0,0,0,0c-.96,2.63-1.9,5.31-2.81,7.91l-.07.2c-10.14,29.21-18,59.37-23.36,89.65l-28.37-5.02h0ZM589.01,864.61c1.09-3.27,2.33-6.83,3.8-10.86l27.07,9.85h0c-1.25,3.44-2.51,7.08-3.97,11.42-6.16,18.69-11.01,37.85-14.4,56.95l-28.38-4.99c3.74-21.06,9.09-42.05,15.88-62.37ZM830.35,972.33c.72-4.27,1.68-8.73,2.86-13.26,1.43-5.53,3.1-10.92,4.95-16.01l26.9,9.79h0s0,0,0,0c-2.01,5.53-3.68,11.13-4.96,16.65-.6,2.58-1.14,5.2-1.59,7.78l-28.17-4.95h0s0,0,0,0ZM915.19,987.27c.89-5.09,2.2-10.06,3.91-14.76l26.02,9.47c-1.17,3.23-2.07,6.63-2.67,10.1l-27.26-4.81h0ZM947.1,687.31c-18.28,3.25-36.35,8.11-53.71,14.44l-9.86-27.04c19.07-6.95,38.77-12.26,58.56-15.79l5.01,28.39ZM926.95,572.88c-24.98,4.41-49.64,11.05-73.3,19.73l-9.87-27.12c25.38-9.25,51.67-16.31,78.15-21l5.01,28.39Z"/>
  </g>
</svg>

<?xml version="1.0" encoding="UTF-8" standalone="no"?>
<!DOCTYPE svg PUBLIC "-//W3C//DTD SVG 1.1//EN" "http://www.w3.org/Graphics/SVG/1.1/DTD/svg11.dtd">
<svg width="100%" height="100%" viewBox="0 0 1004 1004" version="1.1" xmlns="http://www.w3.org/2000/svg" xmlns:xlink="http://www.w3.org/1999/xlink" xml:space="preserve" xmlns:serif="http://www.serif.com/" style="fill-rule:evenodd;clip-rule:evenodd;stroke-linejoin:round;stroke-miterlimit:2;">
    <g id="Graphic">
        <path d="M1003.02,449.86L1002.99,420.89L1002.99,391.68L1002.85,391.68C967.44,391.68 931.79,394.82 896.9,401.02L891.89,372.63C928.37,366.14 965.64,362.85 1002.66,362.85L1003.03,362.85L1003.03,333.51L1003,304.58L1003.02,275.62L1003.02,246.5L1003.03,246.5L1003.03,217.17L1002.56,217.17C957.3,217.17 911.55,221.2 866.58,229.15L861.57,200.76C908.07,192.51 955.44,188.33 1002.37,188.33L1003.03,188.33L1003.03,129.91L1003.01,100.9L1003.01,13.5L1002.9,13.5C945.57,13.5 887.81,18.6 831.23,28.63L826.21,0.12L826.19,0L826.07,0.02C767.97,10.29 710.32,25.77 654.72,46.05C599.12,66.33 654.6,46.09 654.6,46.09L654.48,46.13C599.03,66.32 545.01,91.52 493.89,121.01C442.77,150.5 493.78,121.07 493.78,121.07L493.67,121.13C442.37,150.7 393.49,184.87 348.38,222.69C303.27,260.51 348.28,222.77 348.28,222.77L348.18,222.85C302.99,260.67 260.79,302.8 222.74,348.09C184.69,393.38 222.66,348.19 222.66,348.19L222.58,348.29C184.59,393.6 150.42,442.49 121.03,493.59C91.64,544.69 120.97,493.7 120.97,493.7L120.91,493.81C91.59,544.68 66.43,598.75 46.12,654.51C25.81,710.27 46.08,654.63 46.08,654.63L46.04,654.75C25.74,710.55 10.26,768.18 0.02,826.04L0,826.16L28.65,831.24C18.61,887.68 13.54,945.43 13.56,1002.86L13.56,1002.98L42.66,1002.98L71.69,1003L71.94,1003L100.89,1002.98L129.86,1003L130.11,1003L159.12,1002.98L217.41,1002.98L217.41,1002.86C217.4,957.41 221.44,911.58 229.42,866.62L257.84,871.62C250.13,914.87 246.24,959.02 246.25,1002.86L246.25,1002.98L333.53,1002.98L362.63,1002.99L421.05,1002.99L421.05,1002.87C421.05,969.08 424.03,935.14 429.93,901.99L458.31,906.98C452.67,938.69 449.84,970.95 449.88,1002.87L449.88,1002.99L479.18,1002.99L508.27,1002.98L537.12,1002.98L566.15,1003L595.52,1003L595.52,1002.89C595.5,979.28 597.59,955.52 601.73,932.26L630.15,937.26C626.27,958.92 624.31,981 624.33,1002.87L624.33,1002.99L682.68,1002.99L711.52,1002.96L740.61,1002.98L740.73,1002.98L740.73,1002.86C740.71,987.88 742.05,972.6 744.71,957.45L773.05,962.46C770.68,975.83 769.48,989.42 769.48,1002.87L769.48,1002.99L798.7,1002.99L827.51,1002.97L856.49,1002.97L856.49,1002.84C856.49,994.35 857.25,985.85 858.73,977.55L886.82,982.51C885.61,989.3 885,996.14 885.02,1002.84L885.02,1002.96L913.53,1002.98L913.78,1002.98L941.64,1002.96L941.77,1002.96L941.77,1002.83C941.77,1002.23 941.76,1001.61 941.79,1001.01C941.88,998.1 942.18,995.19 942.68,992.35L968.23,996.86L968.35,996.88L968.37,996.76C968.73,994.73 969.26,992.75 969.95,990.86L969.99,990.74L945.46,981.81C946.67,978.49 948.18,975.29 949.95,972.29L950.01,972.18L925.78,958.2C928.31,953.8 931.29,949.55 934.63,945.56L934.71,945.46L912.86,927.15C917.16,922.01 922.01,917.16 927.26,912.74L927.36,912.66L908.89,890.65C915.4,885.2 922.41,880.32 929.73,876.12L929.84,876.06L915.4,851.05C924.28,845.93 933.54,841.61 942.94,838.22L943.06,838.18L933.16,810.99C944.23,806.93 955.75,803.82 967.43,801.77L967.55,801.75L962.54,773.21C975.61,770.88 989.06,769.7 1002.52,769.7L1003.02,769.7L1003.02,740.44L1002.53,740.44C987.52,740.44 972.36,741.79 957.46,744.45L952.45,716.06C968.87,713.15 985.47,711.68 1001.8,711.68L1003.03,711.68L1003.02,682.38L1003.02,653.3L1002.64,653.3C982.62,653.3 962.33,655.08 942.32,658.6L937.33,630.26C958.92,626.44 980.88,624.5 1002.61,624.5L1003.01,624.5L1003.03,595.46L1003.03,537.07L1002.89,537.07C975.72,537.07 948.56,539.47 922.16,544.17L917.15,515.78C945.22,510.8 973.82,508.28 1002.2,508.28L1003.03,508.28L1003.01,479.1L1003.04,450.08L1003.04,449.83L1003.02,449.86ZM962.22,773.04C948.95,775.39 935.81,778.93 923.16,783.56L913.32,756.56C927.55,751.36 942.33,747.39 957.24,744.77L962.22,773.03L962.22,773.04ZM716.15,952.17C718.26,940.36 721.12,928.55 724.66,917.08C726.02,912.65 727.52,908.18 729.25,903.41L756.28,913.25C754.59,917.91 753,922.7 751.55,927.49C748.64,937.24 746.26,947.22 744.47,957.17L716.13,952.16L716.15,952.17ZM200.8,861.33C208.76,816.47 220.69,771.68 236.25,728.19L237.61,724.46L264.71,734.32L263.16,738.59C248.32,780.09 236.9,823.06 229.22,866.32L200.8,861.32L200.8,861.33ZM836.02,57.3C781.37,66.97 727.07,81.57 674.62,100.69L664.77,73.61C718.82,53.92 774.75,38.88 831.01,28.91L836.02,57.3ZM871.39,257.83C828.39,265.45 785.62,276.96 744.25,292.02L734.4,264.94C777.11,249.36 821.51,237.42 866.37,229.44L871.38,257.83L871.39,257.83ZM901.68,429.68C868.42,435.59 835.52,444.43 803.91,455.95L794.06,428.87C827.47,416.7 861.99,407.43 896.69,401.3L901.67,429.67L901.68,429.68ZM852.76,824.18C842.45,832.83 832.82,842.44 824.15,852.76L802.16,834.26C811.76,822.78 822.56,811.99 834.28,802.18L852.76,824.18ZM778.15,735.26C762.65,748.24 748.2,762.66 735.21,778.12L713.15,759.6C727.36,742.69 743,727.08 759.64,713.22L778.14,735.26L778.15,735.26ZM312.13,423.11C345.73,383.06 383.09,345.75 423.16,312.2L441.68,334.29C402.95,366.72 366.79,402.82 334.2,441.6L312.13,423.11ZM468.09,553.98C494.16,522.95 523.08,494.09 554.04,468.19L572.56,490.28C542.86,515.15 515.15,542.82 490.18,572.52L468.09,553.98ZM601.77,666.16C621.24,642.96 642.91,621.32 666.18,601.84L684.74,623.94C662.75,642.34 642.26,662.78 623.86,684.69L601.77,666.15L601.77,666.16ZM740.87,549.32C714.4,564.57 689.29,582.12 666.22,601.49L647.7,579.4C672.27,558.85 698.77,540.33 726.46,524.37L740.87,549.32ZM653.61,398.2C618.52,418.44 585.03,441.86 554.07,467.83L535.51,445.73C567.85,418.66 602.74,394.28 639.23,373.26L653.61,398.2ZM551.84,221.89C506.5,248.06 463.22,278.32 423.19,311.85L404.67,289.76C445.93,255.17 490.6,223.95 537.43,196.94L551.84,221.89ZM247.22,566.43C272.37,522.71 301.64,480.83 334.23,441.94L356.34,460.52C324.9,497.98 296.6,538.46 272.2,580.86L247.22,566.42L247.22,566.43ZM423.55,668.22C442.9,634.61 465.33,602.52 490.21,572.86L512.33,591.41C488.38,619.97 466.92,650.67 448.53,682.65L423.55,668.21L423.55,668.22ZM574.64,755.47C588.91,730.73 605.48,707.03 623.89,685.04L645.99,703.54C628.63,724.22 613.02,746.54 599.58,769.89L574.63,755.47L574.64,755.47ZM700.49,828.15C710.61,810.6 722.3,793.89 735.24,778.47L757.29,796.99C745.31,811.27 734.58,826.59 725.41,842.52L700.48,828.14L700.49,828.15ZM801.03,886.18C807.8,874.45 815.59,863.33 824.19,853.11L846.2,871.54C838.52,880.74 831.69,890.49 825.92,900.54L801.03,886.18ZM871.61,775.74C858.45,783.34 845.9,792.11 834.31,801.83L815.82,779.75C828.81,768.89 842.74,759.16 857.21,750.83L871.6,775.73L871.61,775.74ZM813.52,675.14C794.31,686.26 776.2,698.95 759.68,712.87L741.16,690.78C759.1,675.7 778.61,662.06 799.13,650.24L813.52,675.14ZM813.63,483.4C783.51,494.38 754.21,508.05 726.55,524.04L712.15,499.06C741.23,482.28 772.05,467.89 803.76,456.28L813.63,483.4ZM753.98,319.43C714.33,333.88 675.76,351.87 639.32,372.92L624.89,347.93C662.71,326.1 702.82,307.4 744.1,292.34L753.98,319.43ZM684.34,128.13C633.62,146.6 584.23,169.63 537.52,196.59L523.12,171.61C571.38,143.77 622.3,120.02 674.47,101L684.34,128.12L684.34,128.13ZM210.35,714.28C227.16,668.1 248,623.33 272.29,581.21L297.25,595.6C273.85,636.2 253.73,679.45 237.45,724.14L210.35,714.28ZM401.68,783.92C414.37,748.99 430.16,715.04 448.63,683L473.58,697.42C455.97,728.03 440.89,760.44 428.75,793.76L401.68,783.91L401.68,783.92ZM565.56,843.57C574.79,818.22 586.27,793.55 599.68,770.24L624.67,784.64C612.06,806.5 601.29,829.64 592.66,853.43L565.56,843.56L565.56,843.57ZM702.08,893.25C708.43,875.84 716.31,858.89 725.52,842.86L750.44,857.27C742.02,871.87 734.85,887.28 729.12,903.08L702.08,893.24L702.08,893.25ZM811.09,932.93C815.06,921.95 820.08,911.17 826.02,900.89L850.85,915.23C845.84,923.9 841.53,933.15 838.03,942.73L811.1,932.93L811.09,932.93ZM903.07,729.1C887.28,734.86 871.88,742.06 857.31,750.49L842.93,725.55C859,716.27 875.93,708.37 893.24,702.06L903.07,729.09L903.07,729.1ZM863.37,619.98C841.22,628.03 819.63,638.1 799.22,649.89L784.81,624.94C806.86,612.22 829.97,601.46 853.51,592.93L863.37,619.97L863.37,619.98ZM892.39,962.52C894.68,956.16 897.56,949.99 900.95,944.18L925.43,958.32C922.86,962.7 920.68,967.36 918.95,972.19L892.39,962.52ZM876.16,929.58C880.42,922.24 885.31,915.28 890.69,908.89L912.51,927.21C908.11,932.4 904.2,937.99 900.87,943.84L876.17,929.58L876.16,929.58ZM890.65,908.53L868.7,890.12C875.12,882.49 882.33,875.29 890.13,868.71L908.52,890.63C901.98,896.14 895.97,902.15 890.65,908.52L890.65,908.53ZM871.74,846.43C880.61,838.99 890.35,832.16 900.71,826.14L915.04,850.98C906.46,855.92 898.09,861.76 890.16,868.37L871.74,846.43ZM886.43,800.94C898.19,794.17 910.5,788.43 923.01,783.88L932.82,810.87C921.63,814.97 910.86,819.99 900.8,825.8L886.43,800.94ZM401.35,896.68C407.03,864.6 415.39,832.63 426.21,801.66L426.28,801.45C427.16,798.93 427.99,796.55 428.88,794.1L455.95,803.95C454.99,806.58 454.05,809.26 453.14,811.86L453.07,812.06C442.93,841.27 435.07,871.43 429.71,901.71L401.34,896.69L401.35,896.68ZM589.01,864.61C590.1,861.34 591.34,857.78 592.81,853.75L619.88,863.6C618.63,867.04 617.37,870.68 615.91,875.02C609.75,893.71 604.9,912.87 601.51,931.97L573.13,926.98C576.87,905.92 582.22,884.93 589.01,864.61ZM830.35,972.33C831.07,968.06 832.03,963.6 833.21,959.07C834.64,953.54 836.31,948.15 838.16,943.06L865.06,952.85C863.05,958.38 861.38,963.98 860.1,969.5C859.5,972.08 858.96,974.7 858.51,977.28L830.34,972.33L830.35,972.33ZM915.19,987.27C916.08,982.18 917.39,977.21 919.1,972.51L945.12,981.98C943.95,985.21 943.05,988.61 942.45,992.08L915.19,987.27ZM947.1,687.31C928.82,690.56 910.75,695.42 893.39,701.75L883.53,674.71C902.6,667.76 922.3,662.45 942.09,658.92L947.1,687.31ZM926.95,572.88C901.97,577.29 877.31,583.93 853.65,592.61L843.78,565.49C869.16,556.24 895.45,549.18 921.93,544.49L926.94,572.88L926.95,572.88Z" style="fill-rule:nonzero;"/>
    </g>
</svg>
